X:4573
T:Needels \& Twine
O:england
R:Jig
M:6/8
A:Westmorland
N:P5 2/2
K:D
B/2c/2|d2d c2A|BdB AGF|GBG FAF|E3 E2c|\
d2d c2A|BdB AGF|GBG FAF|D3 DD2:|
|:G2|FAF FAF|D2d c2A|BdB AFA|E3 E2G|\
FAF FAF|D2d c2A|d2B AFA|D3D3:|
|:g3|f2d d2g|f2d d2e|c2A cde|A3 A2g|\
f2d d2g|f2d d2e|c2A cde|d3 d3:|


